Badges/Community/GitHub/link-github-releases.svg

<svg width="149" height="32" viewBox="0 0 149 32" fill="none" xmlns="http://www.w3.org/2000/svg">
<g filter="url(#filter0_i_25_96)">
<rect width="149" height="31.6038" rx="4" fill="black"/>
<path d="M18 8C13.58 8 10 11.582 10 16C10 19.5353 12.292 22.5333 15.47 23.59C15.87 23.6653 16.0167 23.418 16.0167 23.2053C16.0167 23.0153 16.01 22.512 16.0067 21.8453C13.7813 22.328 13.312 20.772 13.312 20.772C12.948 19.8487 12.422 19.602 12.422 19.602C11.6973 19.106 12.478 19.116 12.478 19.116C13.2813 19.172 13.7033 19.94 13.7033 19.94C14.4167 21.1633 15.576 20.81 16.0333 20.6053C16.1053 20.088 16.3113 19.7353 16.54 19.5353C14.7633 19.3353 12.896 18.6473 12.896 15.582C12.896 14.7087 13.206 13.9953 13.7193 13.4353C13.6293 13.2333 13.3593 12.42 13.7893 11.318C13.7893 11.318 14.4593 11.1033 15.9893 12.138C16.6293 11.96 17.3093 11.872 17.9893 11.868C18.6693 11.872 19.3493 11.96 19.9893 12.138C21.5093 11.1033 22.1793 11.318 22.1793 11.318C22.6093 12.42 22.3393 13.2333 22.2593 13.4353C22.7693 13.9953 23.0793 14.7087 23.0793 15.582C23.0793 18.6553 21.2093 19.332 19.4293 19.5287C19.7093 19.7687 19.9693 20.2593 19.9693 21.0087C19.9693 22.0793 19.9593 22.9393 19.9593 23.1993C19.9593 23.4093 20.0993 23.6593 20.5093 23.5793C23.71 22.53 26 19.53 26 16C26 11.582 22.418 8 18 8Z" fill="white"/>
<path d="M38.169 19.9119C36.123 19.9119 34.33 18.6359 34.33 15.9519C34.33 13.4879 36.035 11.9919 38.114 11.9919C39.302 11.9919 40.424 12.4869 41.095 13.4439L40.072 14.4229C39.489 13.7189 38.928 13.4439 38.158 13.4439C36.816 13.4439 35.859 14.3239 35.859 15.9519C35.859 17.6239 36.86 18.4819 38.169 18.4819C38.763 18.4819 39.214 18.3499 39.588 18.1299V17.0739H38.048V15.7099H41.084V18.8999C40.424 19.4059 39.533 19.9119 38.169 19.9119ZM42.353 19.8019V13.9939H43.761V19.8019H42.353ZM42.32 13.3229V11.8489H43.794V13.3229H42.32ZM47.5864 19.9119C46.3324 19.9119 45.5734 19.2519 45.5734 18.0089V15.1929H44.6274V13.9939H45.5734V12.5749H46.9814V13.9939H48.6094V15.1929H46.9814V17.8219C46.9814 18.3279 47.3334 18.6249 47.9054 18.6249C48.1804 18.6249 48.4334 18.5809 48.7304 18.4929V19.7029C48.4224 19.8349 48.0044 19.9119 47.5864 19.9119ZM49.7774 19.8019V12.1019H51.2734V15.1269H54.6174V12.1019H56.1134V19.8019H54.6174V16.5789H51.2734V19.8019H49.7774ZM59.4439 19.9119C58.2669 19.9119 57.5519 19.0429 57.5519 17.7669V13.9939H58.9599V17.2719C58.9599 18.2619 59.3669 18.6139 59.9939 18.6139C60.5109 18.6139 61.0279 18.2839 61.2479 17.8329V13.9939H62.6559V19.8019H61.2479V18.9769L61.0719 18.9109C60.7529 19.5159 60.2689 19.9119 59.4439 19.9119ZM67.2519 19.9119C66.4489 19.9119 66.0089 19.6479 65.6899 19.2519L65.5139 19.3179V19.8019H64.1059V11.9919H65.5139V14.8189L65.6899 14.8849C65.9759 14.2799 66.5039 13.8839 67.3729 13.8839C68.7589 13.8839 69.7269 14.9839 69.7269 16.7769C69.7269 18.8009 68.6489 19.9119 67.2519 19.9119ZM66.9219 18.6139C67.6699 18.6139 68.2969 17.9649 68.2969 16.7879C68.2969 15.6109 67.6699 15.1819 66.9109 15.1819C66.2839 15.1819 65.7779 15.5119 65.5139 15.9519V17.9319C65.7889 18.2949 66.1849 18.6139 66.9219 18.6139ZM73.668 19.8019V12.1019H76.715C78.332 12.1019 79.41 12.9049 79.41 14.4669C79.41 15.5999 78.772 16.3479 77.892 16.6779V16.8099L79.707 19.8019H77.969L76.297 16.8759H75.164V19.8019H73.668ZM75.164 15.4459H76.715C77.419 15.4459 77.892 15.1379 77.892 14.4779C77.892 13.8179 77.419 13.5539 76.715 13.5539H75.164V15.4459ZM83.1159 19.9119C81.3449 19.9119 80.1899 18.7019 80.1899 16.9089C80.1899 15.1159 81.3449 13.8839 82.9949 13.8839C84.7769 13.8839 85.6679 15.1159 85.6679 16.8319V17.3269H81.6089C81.7519 18.2729 82.3019 18.6359 83.1159 18.6359C83.7099 18.6359 84.1499 18.4489 84.6119 18.0639L85.4589 19.0759C84.8319 19.6589 83.9629 19.9119 83.1159 19.9119ZM82.9949 15.0719C82.2909 15.0719 81.8289 15.4459 81.6529 16.1829H84.2709C84.1829 15.4789 83.7209 15.0719 82.9949 15.0719ZM86.7504 19.8019V11.9919H88.1584V19.8019H86.7504ZM92.2038 19.9119C90.4328 19.9119 89.2778 18.7019 89.2778 16.9089C89.2778 15.1159 90.4328 13.8839 92.0828 13.8839C93.8648 13.8839 94.7558 15.1159 94.7558 16.8319V17.3269H90.6968C90.8398 18.2729 91.3898 18.6359 92.2038 18.6359C92.7978 18.6359 93.2378 18.4489 93.6998 18.0639L94.5468 19.0759C93.9198 19.6589 93.0508 19.9119 92.2038 19.9119ZM92.0828 15.0719C91.3788 15.0719 90.9168 15.4459 90.7408 16.1829H93.3588C93.2708 15.4789 92.8088 15.0719 92.0828 15.0719ZM97.3238 19.9119C96.3558 19.9119 95.4868 19.3069 95.4868 18.0859C95.4868 16.9859 96.2788 16.2599 97.8298 16.2599H99.1718V16.0619C99.1718 15.4239 98.6768 15.2149 98.1378 15.2149C97.4888 15.2149 96.9278 15.4789 96.3448 15.9079L95.6958 14.8189C96.3888 14.2469 97.2138 13.8839 98.2148 13.8839C99.4358 13.8839 100.58 14.4449 100.58 16.0729V19.8019H99.1718V19.1419L98.9958 19.0759C98.6108 19.6149 98.0828 19.9119 97.3238 19.9119ZM96.8948 17.9869C96.8948 18.4159 97.2578 18.7019 97.7858 18.7019C98.4018 18.7019 98.8968 18.3499 99.1718 17.9429V17.2719H97.8078C97.2248 17.2719 96.8948 17.5139 96.8948 17.9869ZM103.973 19.9119C102.983 19.9119 102.246 19.5599 101.586 19.0209L102.334 18.0089C102.796 18.4159 103.346 18.7019 103.973 18.7019C104.556 18.7019 104.886 18.5039 104.886 18.1299C104.886 17.7779 104.644 17.6569 104.171 17.5579L103.434 17.4039C102.433 17.1949 101.85 16.6889 101.85 15.7429C101.85 14.5989 102.675 13.8839 104.006 13.8839C104.842 13.8839 105.59 14.1369 106.195 14.6869L105.414 15.6549C104.985 15.3029 104.523 15.0939 103.984 15.0939C103.588 15.0939 103.214 15.2259 103.214 15.5889C103.214 15.8639 103.39 16.0399 103.951 16.1609L104.765 16.3369C105.634 16.5239 106.283 16.9749 106.283 17.9429C106.283 19.1749 105.37 19.9119 103.973 19.9119ZM109.918 19.9119C108.147 19.9119 106.992 18.7019 106.992 16.9089C106.992 15.1159 108.147 13.8839 109.797 13.8839C111.579 13.8839 112.47 15.1159 112.47 16.8319V17.3269H108.411C108.554 18.2729 109.104 18.6359 109.918 18.6359C110.512 18.6359 110.952 18.4489 111.414 18.0639L112.261 19.0759C111.634 19.6589 110.765 19.9119 109.918 19.9119ZM109.797 15.0719C109.093 15.0719 108.631 15.4459 108.455 16.1829H111.073C110.985 15.4789 110.523 15.0719 109.797 15.0719ZM115.51 19.9119C114.52 19.9119 113.783 19.5599 113.123 19.0209L113.871 18.0089C114.333 18.4159 114.883 18.7019 115.51 18.7019C116.093 18.7019 116.423 18.5039 116.423 18.1299C116.423 17.7779 116.181 17.6569 115.708 17.5579L114.971 17.4039C113.97 17.1949 113.387 16.6889 113.387 15.7429C113.387 14.5989 114.212 13.8839 115.543 13.8839C116.379 13.8839 117.127 14.1369 117.732 14.6869L116.951 15.6549C116.522 15.3029 116.06 15.0939 115.521 15.0939C115.125 15.0939 114.751 15.2259 114.751 15.5889C114.751 15.8639 114.927 16.0399 115.488 16.1609L116.302 16.3369C117.171 16.5239 117.82 16.9749 117.82 17.9429C117.82 19.1749 116.907 19.9119 115.51 19.9119Z" fill="white"/>
<path d="M132.625 10.9894C132.781 10.9894 132.914 11.0441 133.023 11.1535C133.133 11.2628 133.188 11.3957 133.188 11.5519C133.188 11.7082 133.133 11.841 133.023 11.9503C132.914 12.0597 132.781 12.1144 132.625 12.1144H129.062V19.9894H136.938V16.4269C136.938 16.2707 136.992 16.1378 137.102 16.0285C137.211 15.9191 137.344 15.8644 137.5 15.8644C137.656 15.8644 137.789 15.9191 137.898 16.0285C138.008 16.1378 138.062 16.2707 138.062 16.4269V20.1769C138.062 20.3449 138.02 20.5011 137.934 20.6457C137.852 20.7902 137.738 20.9035 137.594 20.9855C137.449 21.0714 137.293 21.1144 137.125 21.1144H128.875C128.707 21.1144 128.551 21.0714 128.406 20.9855C128.262 20.9035 128.146 20.7902 128.061 20.6457C127.979 20.5011 127.938 20.3449 127.938 20.1769V11.9269C127.938 11.7589 127.979 11.6027 128.061 11.4582C128.146 11.3136 128.262 11.2003 128.406 11.1183C128.551 11.0324 128.707 10.9894 128.875 10.9894H132.625ZM137.5 10.9894C137.656 10.9894 137.789 11.0441 137.898 11.1535C138.008 11.2628 138.062 11.3957 138.062 11.5519V13.8019C138.062 13.9582 138.008 14.091 137.898 14.2003C137.789 14.3097 137.656 14.3644 137.5 14.3644C137.344 14.3644 137.211 14.3097 137.102 14.2003C136.992 14.091 136.938 13.9582 136.938 13.8019V12.9113L133.398 16.4503C133.289 16.5597 133.156 16.6144 133 16.6144C132.844 16.6144 132.711 16.5597 132.602 16.4503C132.492 16.341 132.438 16.2082 132.438 16.0519C132.438 15.8957 132.492 15.7628 132.602 15.6535L136.141 12.1144H135.25C135.094 12.1144 134.961 12.0597 134.852 11.9503C134.742 11.841 134.688 11.7082 134.688 11.5519C134.688 11.3957 134.742 11.2628 134.852 11.1535C134.961 11.0441 135.094 10.9894 135.25 10.9894H137.5Z" fill="white"/>
</g>
<defs>
<filter id="filter0_i_25_96" x="0" y="-2" width="149" height="33.6038" filterUnits="userSpaceOnUse" color-interpolation-filters="sRGB">
<feFlood flood-opacity="0" result="BackgroundImageFix"/>
<feBlend mode="normal" in="SourceGraphic" in2="BackgroundImageFix" result="shape"/>
<feColorMatrix in="SourceAlpha" type="matrix" values="0 0 0 0 0 0 0 0 0 0 0 0 0 0 0 0 0 0 127 0" result="hardAlpha"/>
<feOffset dy="-2"/>
<feGaussianBlur stdDeviation="1.65"/>
<feComposite in2="hardAlpha" operator="arithmetic" k2="-1" k3="1"/>
<feColorMatrix type="matrix" values="0 0 0 0 1 0 0 0 0 1 0 0 0 0 1 0 0 0 0.11 0"/>
<feBlend mode="normal" in2="shape" result="effect1_innerShadow_25_96"/>
</filter>
</defs>
</svg>

<svg xmlns="http://www.w3.org/2000/svg" width="149" height="32" fill="none">
  <g filter="url(#a)">
    <rect width="149" height="31.604" fill="#000" rx="4"/>
    <path fill="#fff" d="M18 8a8 8 0 0 0-8 8 8 8 0 0 0 5.47 7.59c.4.075.547-.172.547-.385 0-.19-.007-.693-.01-1.36-2.226.483-2.695-1.073-2.695-1.073-.364-.923-.89-1.17-.89-1.17-.725-.496.056-.486.056-.486.803.056 1.225.824 1.225.824.714 1.223 1.873.87 2.33.665.072-.517.278-.87.507-1.07-1.777-.2-3.644-.888-3.644-3.953 0-.873.31-1.587.823-2.147-.09-.202-.36-1.015.07-2.117 0 0 .67-.215 2.2.82a7.7 7.7 0 0 1 2-.27 7.7 7.7 0 0 1 2 .27c1.52-1.035 2.19-.82 2.19-.82.43 1.102.16 1.915.08 2.117a3.1 3.1 0 0 1 .82 2.147c0 3.073-1.87 3.75-3.65 3.947.28.24.54.73.54 1.48 0 1.07-.01 1.93-.01 2.19 0 .21.14.46.55.38A7.97 7.97 0 0 0 26 16a8 8 0 0 0-8-8m20.169 11.912c-2.046 0-3.839-1.276-3.839-3.96 0-2.464 1.705-3.96 3.784-3.96 1.188 0 2.31.495 2.981 1.452l-1.023.979c-.583-.704-1.144-.98-1.914-.98-1.342 0-2.299.88-2.299 2.509 0 1.672 1.001 2.53 2.31 2.53.594 0 1.045-.132 1.419-.352v-1.056h-1.54V15.71h3.036v3.19c-.66.506-1.551 1.012-2.915 1.012m4.184-.11v-5.808h1.408v5.808zm-.033-6.48V11.85h1.474v1.474zm5.266 6.59c-1.254 0-2.013-.66-2.013-1.903v-2.816h-.946v-1.2h.946v-1.418h1.408v1.419h1.628v1.199h-1.628v2.629c0 .506.352.803.924.803.275 0 .528-.044.825-.132v1.21c-.308.132-.726.209-1.144.209m2.191-.11v-7.7h1.496v3.025h3.344v-3.025h1.496v7.7h-1.496v-3.223h-3.344v3.223zm9.667.11c-1.177 0-1.892-.87-1.892-2.145v-3.773h1.408v3.278c0 .99.407 1.342 1.034 1.342.517 0 1.034-.33 1.254-.781v-3.84h1.408v5.809h-1.408v-.825l-.176-.066c-.32.605-.803 1-1.628 1m7.808 0c-.803 0-1.243-.264-1.562-.66l-.176.066v.484h-1.408v-7.81h1.408v2.827l.176.066c.286-.605.814-1.001 1.683-1.001 1.386 0 2.354 1.1 2.354 2.893 0 2.024-1.078 3.135-2.475 3.135m-.33-1.298c.748 0 1.375-.65 1.375-1.826s-.627-1.606-1.386-1.606c-.627 0-1.133.33-1.397.77v1.98c.275.363.67.682 1.408.682m6.746 1.188v-7.7h3.047c1.617 0 2.695.803 2.695 2.365 0 1.133-.638 1.88-1.518 2.21v.133l1.815 2.992h-1.738l-1.672-2.926h-1.133v2.926zm1.496-4.356h1.551c.704 0 1.177-.308 1.177-.968s-.473-.924-1.177-.924h-1.551zm7.952 4.466c-1.771 0-2.926-1.21-2.926-3.003s1.155-3.025 2.805-3.025c1.782 0 2.673 1.232 2.673 2.948v.495h-4.06c.144.946.694 1.309 1.508 1.309.594 0 1.034-.187 1.496-.572l.847 1.012c-.627.583-1.496.836-2.343.836m-.121-4.84c-.704 0-1.166.374-1.342 1.11h2.618c-.088-.703-.55-1.11-1.276-1.11m3.755 4.73v-7.81h1.408v7.81zm5.454.11c-1.771 0-2.926-1.21-2.926-3.003s1.155-3.025 2.805-3.025c1.782 0 2.673 1.232 2.673 2.948v.495h-4.06c.144.946.694 1.309 1.508 1.309.594 0 1.034-.187 1.496-.572l.847 1.012c-.627.583-1.496.836-2.343.836m-.121-4.84c-.704 0-1.166.374-1.342 1.11h2.618c-.088-.703-.55-1.11-1.276-1.11m5.24 4.84c-.967 0-1.836-.605-1.836-1.826 0-1.1.792-1.826 2.343-1.826h1.342v-.198c0-.638-.495-.847-1.034-.847-.65 0-1.21.264-1.793.693l-.65-1.09c.694-.571 1.519-.934 2.52-.934 1.22 0 2.365.56 2.365 2.189v3.729h-1.408v-.66l-.176-.066c-.385.539-.913.836-1.672.836m-.428-1.925c0 .429.363.715.89.715.617 0 1.112-.352 1.387-.76v-.67h-1.364c-.583 0-.913.242-.913.715m7.078 1.925c-.99 0-1.727-.352-2.387-.891l.748-1.012c.462.407 1.012.693 1.639.693.583 0 .913-.198.913-.572 0-.352-.242-.473-.715-.572l-.737-.154c-1.001-.21-1.584-.715-1.584-1.661 0-1.144.825-1.86 2.156-1.86.836 0 1.584.254 2.189.804l-.781.968c-.429-.352-.891-.561-1.43-.561-.396 0-.77.132-.77.495 0 .275.176.45.737.572l.814.176c.869.187 1.518.638 1.518 1.606 0 1.232-.913 1.969-2.31 1.969m5.945 0c-1.771 0-2.926-1.21-2.926-3.003s1.155-3.025 2.805-3.025c1.782 0 2.673 1.232 2.673 2.948v.495h-4.059c.143.946.693 1.309 1.507 1.309.594 0 1.034-.187 1.496-.572l.847 1.012c-.627.583-1.496.836-2.343.836m-.121-4.84c-.704 0-1.166.374-1.342 1.11h2.618c-.088-.703-.55-1.11-1.276-1.11m5.713 4.84c-.99 0-1.727-.352-2.387-.891l.748-1.012c.462.407 1.012.693 1.639.693.583 0 .913-.198.913-.572 0-.352-.242-.473-.715-.572l-.737-.154c-1.001-.21-1.584-.715-1.584-1.661 0-1.144.825-1.86 2.156-1.86.836 0 1.584.254 2.189.804l-.781.968c-.429-.352-.891-.561-1.43-.561-.396 0-.77.132-.77.495 0 .275.176.45.737.572l.814.176c.869.187 1.518.638 1.518 1.606 0 1.232-.913 1.969-2.31 1.969m17.114-8.921q.234 0 .398.163a.54.54 0 0 1 .165.399.54.54 0 0 1-.165.398.54.54 0 0 1-.398.164h-3.563v7.875h7.876v-3.562a.54.54 0 0 1 .164-.398.54.54 0 0 1 .398-.165q.234 0 .398.165a.54.54 0 0 1 .164.398v3.75a.9.9 0 0 1-.128.469.9.9 0 0 1-.34.34.9.9 0 0 1-.469.128h-8.25a.9.9 0 0 1-.469-.129.9.9 0 0 1-.345-.34.93.93 0 0 1-.123-.468v-8.25q0-.252.123-.469a.9.9 0 0 1 .345-.34.9.9 0 0 1 .469-.129zm4.875 0q.234 0 .398.163a.54.54 0 0 1 .164.399v2.25a.54.54 0 0 1-.164.398.54.54 0 0 1-.398.164.54.54 0 0 1-.398-.164.54.54 0 0 1-.164-.398v-.89l-3.54 3.538a.54.54 0 0 1-.398.164.54.54 0 0 1-.398-.164.54.54 0 0 1-.164-.398.54.54 0 0 1 .164-.399l3.539-3.539h-.891a.54.54 0 0 1-.398-.164.54.54 0 0 1-.164-.398.54.54 0 0 1 .164-.399.54.54 0 0 1 .398-.164z"/>
  </g>
  <defs>
    <filter id="a" width="149" height="33.604" x="0" y="-2" color-interpolation-filters="sRGB" filterUnits="userSpaceOnUse">
      <feFlood flood-opacity="0" result="BackgroundImageFix"/>
      <feBlend in="SourceGraphic" in2="BackgroundImageFix" result="shape"/>
      <feColorMatrix in="SourceAlpha" result="hardAlpha" values="0 0 0 0 0 0 0 0 0 0 0 0 0 0 0 0 0 0 127 0"/>
      <feOffset dy="-2"/>
      <feGaussianBlur stdDeviation="1.65"/>
      <feComposite in2="hardAlpha" k2="-1" k3="1" operator="arithmetic"/>
      <feColorMatrix values="0 0 0 0 1 0 0 0 0 1 0 0 0 0 1 0 0 0 0.11 0"/>
      <feBlend in2="shape" result="effect1_innerShadow_25_96"/>
    </filter>
  </defs>
</svg>
